X: 4
T: The Lark On The Strand
R: jig
M: 6/8
L: 1/8
K: Gmaj
ABG AGA | BGE G3 | ABA GBd | egd edB |
ABG AGA | BGE G2 D | GBA G2B | dBG BdB :|
GBd ggg | gba gdB | GBd g2d | egd edB |
GBd ggg | gba ggg | aba age | egd edB :|


Tune 1634	Setting 15057

